www/assets/icons/hide_image.svg

<svg width="24" height="24" viewBox="0 0 24 24" xmlns="http://www.w3.org/2000/svg" fill='currentColor'><path d="M21.71 4.2901C21.71 3.1901 20.81 2.2901 19.71 2.2901H6.54001L21.71 17.4601V4.2901Z"/><path d="M3.52001 2.1001L2.10001 3.5101L3.71001 5.1201V18.2901C3.71001 19.3901 4.61001 20.2901 5.71001 20.2901H18.88L20.49 21.9001L21.9 20.4901L3.52001 2.1001ZM6.71001 16.2901L9.71001 12.2901L11.96 15.2901L12.78 14.1901L14.88 16.2901H6.71001Z"/></svg>

<svg xmlns="http://www.w3.org/2000/svg" width="24" height="24" viewBox="0 0 24 24" fill='currentColor'><path d="M21.71 4.29c0-1.1-.9-2-2-2H6.54l15.17 15.17zM3.52 2.1 2.1 3.51l1.61 1.61v13.17c0 1.1.9 2 2 2h13.17l1.61 1.61 1.41-1.41zm3.19 14.19 3-4 2.25 3 .82-1.1 2.1 2.1z"/></svg>
